Adwaita++/actions/symbolic/format-logarithmic-symbolic.svg

<svg fill="none" height="16" viewBox="0 0 16 16" width="16" xmlns="http://www.w3.org/2000/svg" xmlns:xlink="http://www.w3.org/1999/xlink">
  <defs>
    <clipPath id="clip0">
      <path d="m0 0h16v16h-16z"/>
    </clipPath>
  </defs>
  <g clip-path="url(#clip0)" fill="#444">
    <rect height="16" opacity=".4" rx="1" width="16"/>
    <path clip-rule="evenodd" d="m16 7.826v-2.0022c.1281.00591.2568.01226.3859.01906l-.1052 1.99723c-.094-.00494-.1875-.00964-.2807-.01409z" fill-rule="evenodd"/>
    <path d="m16 5.8238c-4.6224-.21319-8.62455.15664-11.56201 1.67482-1.53252.79206-2.7793 1.89856-3.65903 3.38468-.308855.5217-.56841 1.0833-.77895475 1.6855v2.4312c0 .5523.44771575 1 1.00000475 1h.35348c.11654-1.7025.52142-3.042 1.14652-4.0979.66748-1.1276 1.61839-1.98697 2.85626-2.62675 2.4716-1.27741 6.06333-1.66787 10.64373-1.44935z"/>
  </g>
</svg>

<svg xmlns="http://www.w3.org/2000/svg" fill="none" width="16" height="16" viewBox="0 0 16 16">
 <g clip-path="url(#clip0)">
  <rect fill="#444" opacity=".4" width="16" height="16" rx="1"/>
  <path fill="#444" fill-rule="evenodd" d="M16 7.826V5.8238C16.1281 5.82971 16.2568 5.83606 16.3859 5.84286L16.2807 7.84009C16.1867 7.83515 16.0932 7.83045 16 7.826Z" clip-rule="evenodd"/>
  <path fill="#444" d="M16 5.8238C11.3776 5.61061 7.37545 5.98044 4.43799 7.49862C2.90547 8.29068 1.65869 9.39718 0.77896 10.8833C0.470105 11.405 0.21055 11.9666 5.24521e-06 12.5688V15C5.24521e-06 15.5523 0.447721 16 1.00001 16H1.35349C1.47003 14.2975 1.87491 12.958 2.50001 11.9021C3.16749 10.7745 4.1184 9.91513 5.35627 9.27535C7.82787 7.99794 11.4196 7.60748 16 7.826V5.8238Z"/>
 </g>
 <defs>
  <clipPath id="clip0">
   <rect fill="#fff" width="16" height="16"/>
  </clipPath>
 </defs>
</svg>
